!!!OTL: Taeglich zu singen.
!!!OTL-incipit:ICH DANKE GOTT
!!!COM: J. A. P. Schulz
!!!ARE: Europa, Mitteleuropa, Deutschland
!!!SCT: F0363
!!!TXL: @@DE
!!!YEM: Copyright 1995, estate of Helmut Schaffrath.
**kern	**text
*ICvox	*
*Ivox	*
*clefG2	*
*M6/4	*
*k[b-]	*
*F:	*
!LO:TX:a:t=Nicht ʒu langſam und nachdrücklich.	!
!LO:TX:a:t=P:only the highest voice encoded:problem	!
{4c	1._Jch
=1	=1
2f	dan-
4f	-ke
2cc	Gott,
4cc	und
=2	=2
2dd	freu-
4dd	-e
2cc}	mich,
{4cc	wie's
=3	=3
2ff	Kind
4cc	ʒur
2dd	Weihnacht-
4a	.
=4	=4
1.cc	-ga
=5	=5
2.a	be,
4r	.
4r}	.
{4a	daß
=6	=6
2g	ich
4g	noch
2b-/	bin!
4b-/	und
=7	=7
2a	daß
4a	ich
2dd/}	dich,
{4dd/	ſchön
=8	=8
2cc/	menſchlich
4f	.
2b-/	An-
4g	-tlitʒ
=9	=9
2f	ha-
4c	.
2.g	-be!
=10	=10
[>2.f	.
2f]}	.
==	==
!!!AGN: Jugend - Lied, religioes
!!!ONB: ESAC (Essen Associative Code) Database: FINK
!!!AMT: compound duple
!!!AIN: vox
!!!EED: Helmut Schaffrath
!!!EEV: 1.0
!!Text: M. Claudius
!!!RDF**kern: > = above
!!!GTL: Erbauungslieder
!!!source: Musikalischer Hausschatz der Deutschen. Eine Sammlung von über 1000 Liedern und Gesängen mit Singstimmen und Klavierbegleitung. Leipzig, Litterarisches Verlags-Haus.
!!!page: 214
!!!URL-scan: https://www.digitale-sammlungen.de/en/view/bsb11144622?page=642
!!!ENC: Anna Maria Matuszewska
!!!EEV: 2024/08/08
*-	*-
